src/symbolic/status/notification-disabled-symbolic.svg

<svg xmlns="http://www.w3.org/2000/svg" width="16" height="16" version="1.1">
 <path style="fill:#444444" d="M 8 1 C 7.45 1 7 1.45 7 2 C 7 2.03 6.9998 2.0696 7.0098 2.0996 C 6.513 2.1994 6.0506 2.385 5.6191 2.6191 L 13 10 L 13 9 L 13 7 C 13 4.57 11.28 2.5596 8.9902 2.0996 C 9.0002 2.0696 9 2.03 9 2 C 9 1.45 8.55 1 8 1 z M 4.0078 4.0078 C 3.3813 4.8419 3 5.8717 3 7 L 3 11.5 L 1 13.5 L 1 14 L 3 14 L 13 14 L 14 14 L 4.0078 4.0078 z M 6.2695 15 C 6.6295 15.62 7.29 16 8 16 C 8.71 16 9.3705 15.62 9.7305 15 L 6.2695 15 z"/>
 <path style="fill:#444444" d="M 2.5,1.5 15,14 13.5,15.5 1,3 Z"/>
</svg>

<svg xmlns="http://www.w3.org/2000/svg" width="16" height="16"><path d="M8 1c-.55 0-1 .45-1 1 0 .03 0 .07.01.1-.497.1-.96.285-1.39.52L13 10V7c0-2.43-1.72-4.44-4.01-4.9C9 2.07 9 2.03 9 2c0-.55-.45-1-1-1zM4.008 4.008A4.96 4.96 0 0 0 3 7v4.5l-2 2v.5h13L4.008 4.008zM6.269 15c.36.62 1.021 1 1.731 1 .71 0 1.37-.38 1.73-1H6.27z" fill="#444"/><path d="M2.5 1.5L15 14l-1.5 1.5L1 3z" fill="#444"/></svg>
